effects/025-innocean-capsule-pile/lut.CUBE
TITLE "lut - converted with Color.io - Created with Color.io"
LUT_3D_SIZE 8
DOMAIN_MIN 0.0 0.0 0.0
DOMAIN_MAX 1.0 1.0 1.0
0.090196 0.078431 0.074510
0.090196 0.078431 0.074510
0.525490 0.019608 0.019608
0.752941 0.023529 0.023529
0.905882 0.027451 0.027451
1.000000 0.047059 0.054902
1.000000 0.105882 0.117647
1.000000 0.105882 0.117647
0.090196 0.078431 0.074510
0.090196 0.078431 0.074510
0.525490 0.019608 0.019608
0.752941 0.023529 0.023529
0.905882 0.027451 0.027451
1.000000 0.047059 0.054902
1.000000 0.105882 0.117647
1.000000 0.105882 0.117647
0.078431 0.466667 0.003922
0.078431 0.466667 0.003922
0.513725 0.509804 0.027451
0.776471 0.458824 0.031373
0.913725 0.419608 0.031373
1.000000 0.419608 0.043137
1.000000 0.431373 0.090196
1.000000 0.431373 0.090196
0.113725 0.670588 0.003922
0.113725 0.670588 0.003922
0.431373 0.733333 0.027451
0.745098 0.741176 0.035294
0.933333 0.733333 0.039216
1.000000 0.701961 0.058824
1.000000 0.662745 0.098039
1.000000 0.662745 0.098039
0.133333 0.811765 0.003922
0.133333 0.811765 0.003922
0.396078 0.870588 0.027451
0.694118 0.886275 0.035294
0.890196 0.886275 0.039216
1.000000 0.870588 0.109804
1.000000 0.811765 0.113725
1.000000 0.811765 0.113725
0.156863 0.905882 0.000000
0.156863 0.905882 0.000000
0.400000 0.952941 0.031373
0.654902 0.964706 0.035294
0.835294 0.972549 0.039216
0.984314 0.976471 0.047059
1.000000 0.917647 0.168627
1.000000 0.917647 0.168627
0.200000 0.929412 0.047059
0.200000 0.929412 0.047059
0.427451 0.964706 0.035294
0.639216 0.980392 0.047059
0.784314 0.980392 0.047059
0.905882 0.984314 0.050980
0.996078 0.984314 0.050980
0.996078 0.984314 0.050980
0.200000 0.929412 0.047059
0.200000 0.929412 0.047059
0.427451 0.964706 0.035294
0.639216 0.980392 0.047059
0.784314 0.980392 0.047059
0.905882 0.984314 0.050980
0.996078 0.984314 0.050980
0.996078 0.984314 0.050980
0.090196 0.078431 0.074510
0.090196 0.078431 0.074510
0.525490 0.019608 0.019608
0.752941 0.023529 0.023529
0.905882 0.027451 0.027451
1.000000 0.047059 0.054902
1.000000 0.105882 0.117647
1.000000 0.105882 0.117647
0.090196 0.078431 0.074510
0.090196 0.078431 0.074510
0.525490 0.019608 0.019608
0.752941 0.023529 0.023529
0.905882 0.027451 0.027451
1.000000 0.047059 0.054902
1.000000 0.105882 0.117647
1.000000 0.105882 0.117647
0.078431 0.466667 0.003922
0.078431 0.466667 0.003922
0.513725 0.509804 0.027451
0.776471 0.458824 0.031373
0.913725 0.419608 0.031373
1.000000 0.419608 0.043137
1.000000 0.431373 0.090196
1.000000 0.431373 0.090196
0.113725 0.670588 0.003922
0.113725 0.670588 0.003922
0.431373 0.733333 0.027451
0.745098 0.741176 0.035294
0.933333 0.733333 0.039216
1.000000 0.701961 0.058824
1.000000 0.662745 0.098039
1.000000 0.662745 0.098039
0.133333 0.811765 0.003922
0.133333 0.811765 0.003922
0.396078 0.870588 0.027451
0.694118 0.886275 0.035294
0.890196 0.886275 0.039216
1.000000 0.870588 0.109804
1.000000 0.811765 0.113725
1.000000 0.811765 0.113725
0.156863 0.905882 0.000000
0.156863 0.905882 0.000000
0.400000 0.952941 0.031373
0.654902 0.964706 0.035294
0.835294 0.972549 0.039216
0.984314 0.976471 0.047059
1.000000 0.917647 0.168627
1.000000 0.917647 0.168627
0.200000 0.929412 0.047059
0.200000 0.929412 0.047059
0.427451 0.964706 0.035294
0.639216 0.980392 0.047059
0.784314 0.980392 0.047059
0.905882 0.984314 0.050980
0.996078 0.984314 0.050980
0.996078 0.984314 0.050980
0.200000 0.929412 0.047059
0.200000 0.929412 0.047059
0.427451 0.964706 0.035294
0.639216 0.980392 0.047059
0.784314 0.980392 0.047059
0.905882 0.984314 0.050980
0.996078 0.984314 0.050980
0.996078 0.984314 0.050980
0.074510 0.003922 0.325490
0.074510 0.003922 0.325490
0.521569 0.011765 0.411765
0.741176 0.011765 0.321569
0.882353 0.015686 0.282353
0.984314 0.027451 0.294118
1.000000 0.082353 0.360784
1.000000 0.082353 0.360784
0.074510 0.003922 0.325490
0.074510 0.003922 0.325490
0.521569 0.011765 0.411765
0.741176 0.011765 0.321569
0.882353 0.015686 0.282353
0.984314 0.027451 0.294118
1.000000 0.082353 0.360784
1.000000 0.082353 0.360784
0.113725 0.411765 0.407843
0.113725 0.411765 0.407843
0.415686 0.368627 0.341176
0.698039 0.317647 0.286275
0.905882 0.282353 0.254902
1.000000 0.305882 0.274510
1.000000 0.419608 0.384314
1.000000 0.419608 0.384314
0.133333 0.662745 0.352941
0.133333 0.662745 0.352941
0.368627 0.658824 0.294118
0.705882 0.674510 0.290196
0.917647 0.650980 0.250980
1.000000 0.631373 0.294118
1.000000 0.647059 0.388235
1.000000 0.647059 0.388235
0.149020 0.811765 0.317647
0.149020 0.811765 0.317647
0.345098 0.858824 0.254902
0.662745 0.878431 0.247059
0.905882 0.878431 0.250980
1.000000 0.839216 0.356863
1.000000 0.800000 0.439216
1.000000 0.800000 0.439216
0.172549 0.898039 0.309804
0.172549 0.898039 0.309804
0.384314 0.952941 0.274510
0.639216 0.972549 0.258824
0.847059 0.980392 0.266667
1.000000 0.976471 0.301961
1.000000 0.909804 0.513725
1.000000 0.909804 0.513725
0.211765 0.921569 0.341176
0.211765 0.921569 0.341176
0.486275 0.956863 0.364706
0.662745 0.972549 0.352941
0.807843 0.976471 0.356863
0.925490 0.980392 0.364706
1.000000 0.972549 0.478431
1.000000 0.972549 0.478431
0.211765 0.921569 0.341176
0.211765 0.921569 0.341176
0.486275 0.956863 0.364706
0.662745 0.972549 0.352941
0.807843 0.976471 0.356863
0.925490 0.980392 0.364706
1.000000 0.972549 0.478431
1.000000 0.972549 0.478431
0.090196 0.003922 0.407843
0.090196 0.003922 0.407843
0.486275 0.007843 0.650980
0.752941 0.015686 0.615686
0.898039 0.015686 0.549020
0.992157 0.027451 0.529412
1.000000 0.082353 0.545098
1.000000 0.082353 0.545098
0.090196 0.003922 0.407843
0.090196 0.003922 0.407843
0.486275 0.007843 0.650980
0.752941 0.015686 0.615686
0.898039 0.015686 0.549020
0.992157 0.027451 0.529412
1.000000 0.082353 0.545098
1.000000 0.082353 0.545098
0.125490 0.301961 0.603922
0.125490 0.301961 0.603922
0.372549 0.294118 0.600000
0.717647 0.301961 0.603922
0.917647 0.258824 0.556863
1.000000 0.286275 0.525490
1.000000 0.392157 0.549020
1.000000 0.392157 0.549020
0.152941 0.603922 0.600000
0.152941 0.603922 0.600000
0.392157 0.639216 0.611765
0.658824 0.596078 0.556863
0.858824 0.549020 0.505882
1.000000 0.529412 0.474510
1.000000 0.647059 0.600000
1.000000 0.647059 0.600000
0.172549 0.796078 0.580392
0.172549 0.796078 0.580392
0.368627 0.854902 0.580392
0.619608 0.800000 0.509804
0.862745 0.811765 0.509804
1.000000 0.800000 0.525490
1.000000 0.792157 0.631373
1.000000 0.792157 0.631373
0.196078 0.890196 0.556863
0.196078 0.890196 0.556863
0.400000 0.949020 0.549020
0.596078 0.956863 0.474510
0.823529 0.972549 0.466667
1.000000 0.968627 0.556863
1.000000 0.913725 0.705882
1.000000 0.913725 0.705882
0.227451 0.917647 0.541176
0.227451 0.917647 0.541176
0.501961 0.956863 0.576471
0.698039 0.968627 0.572549
0.823529 0.976471 0.564706
0.937255 0.980392 0.572549
1.000000 0.972549 0.733333
1.000000 0.972549 0.733333
0.227451 0.917647 0.541176
0.227451 0.917647 0.541176
0.501961 0.956863 0.576471
0.698039 0.968627 0.572549
0.823529 0.976471 0.564706
0.937255 0.980392 0.572549
1.000000 0.972549 0.733333
1.000000 0.972549 0.733333
0.109804 0.003922 0.505882
0.109804 0.003922 0.505882
0.458824 0.003922 0.784314
0.749020 0.011765 0.796078
0.905882 0.015686 0.752941
0.996078 0.027451 0.717647
1.000000 0.086275 0.690196
1.000000 0.086275 0.690196
0.109804 0.003922 0.505882
0.109804 0.003922 0.505882
0.458824 0.003922 0.784314
0.749020 0.011765 0.796078
0.905882 0.015686 0.752941
0.996078 0.027451 0.717647
1.000000 0.086275 0.690196
1.000000 0.086275 0.690196
0.145098 0.247059 0.745098
0.145098 0.247059 0.745098
0.360784 0.239216 0.792157
0.713725 0.250980 0.815686
0.933333 0.258824 0.800000
1.000000 0.294118 0.725490
1.000000 0.396078 0.690196
1.000000 0.396078 0.690196
0.164706 0.521569 0.741176
0.164706 0.521569 0.741176
0.356863 0.549020 0.792157
0.627451 0.525490 0.749020
0.866667 0.533333 0.749020
1.000000 0.505882 0.701961
1.000000 0.631373 0.717647
1.000000 0.631373 0.717647
0.184314 0.741176 0.733333
0.184314 0.741176 0.733333
0.388235 0.815686 0.796078
0.635294 0.784314 0.749020
0.831373 0.756863 0.717647
0.984314 0.729412 0.678431
1.000000 0.800000 0.756863
1.000000 0.800000 0.756863
0.215686 0.882353 0.729412
0.215686 0.882353 0.729412
0.427451 0.949020 0.760784
0.611765 0.952941 0.729412
0.800000 0.917647 0.682353
0.984314 0.925490 0.678431
1.000000 0.913725 0.807843
1.000000 0.913725 0.807843
0.243137 0.909804 0.682353
0.243137 0.909804 0.682353
0.509804 0.952941 0.721569
0.713725 0.968627 0.725490
0.854902 0.976471 0.729412
0.949020 0.980392 0.725490
1.000000 0.976471 0.882353
1.000000 0.976471 0.882353
0.243137 0.909804 0.682353
0.243137 0.909804 0.682353
0.509804 0.952941 0.721569
0.713725 0.968627 0.725490
0.854902 0.976471 0.729412
0.949020 0.980392 0.725490
1.000000 0.976471 0.882353
1.000000 0.976471 0.882353
0.160784 0.003922 0.760784
0.160784 0.003922 0.760784
0.486275 0.019608 0.882353
0.745098 0.023529 0.890196
0.917647 0.027451 0.901961
1.000000 0.035294 0.850980
1.000000 0.090196 0.788235
1.000000 0.090196 0.788235
0.160784 0.003922 0.760784
0.160784 0.003922 0.760784
0.486275 0.019608 0.882353
0.745098 0.023529 0.890196
0.917647 0.027451 0.901961
1.000000 0.035294 0.850980
1.000000 0.090196 0.788235
1.000000 0.090196 0.788235
0.164706 0.235294 0.823529
0.164706 0.235294 0.823529
0.400000 0.258824 0.886275
0.694118 0.270588 0.905882
0.901961 0.274510 0.917647
1.000000 0.298039 0.870588
1.000000 0.400000 0.796078
1.000000 0.400000 0.796078
0.184314 0.478431 0.827451
0.184314 0.478431 0.827451
0.388235 0.509804 0.886275
0.611765 0.474510 0.898039
0.854902 0.478431 0.905882
1.000000 0.513725 0.878431
1.000000 0.635294 0.811765
1.000000 0.635294 0.811765
0.200000 0.674510 0.819608
0.200000 0.674510 0.819608
0.411765 0.745098 0.886275
0.603922 0.729412 0.898039
0.807843 0.705882 0.862745
0.988235 0.713725 0.858824
1.000000 0.792157 0.839216
1.000000 0.792157 0.839216
0.219608 0.827451 0.823529
0.219608 0.827451 0.823529
0.435294 0.909804 0.886275
0.627451 0.929412 0.901961
0.811765 0.905882 0.866667
0.956863 0.878431 0.835294
1.000000 0.913725 0.886275
1.000000 0.913725 0.886275
0.254902 0.905882 0.792157
0.254902 0.905882 0.792157
0.525490 0.956863 0.835294
0.717647 0.964706 0.835294
0.858824 0.976471 0.847059
0.968627 0.980392 0.839216
1.000000 0.988235 0.968627
1.000000 0.988235 0.968627
0.254902 0.905882 0.792157
0.254902 0.905882 0.792157
0.525490 0.956863 0.835294
0.717647 0.964706 0.835294
0.858824 0.976471 0.847059
0.968627 0.980392 0.839216
1.000000 0.988235 0.968627
1.000000 0.988235 0.968627
0.223529 0.047059 0.870588
0.223529 0.047059 0.870588
0.541176 0.058824 0.921569
0.764706 0.058824 0.949020
0.905882 0.058824 0.952941
1.000000 0.070588 0.945098
1.000000 0.094118 0.870588
1.000000 0.094118 0.870588
0.223529 0.047059 0.870588
0.223529 0.047059 0.870588
0.541176 0.058824 0.921569
0.764706 0.058824 0.949020
0.905882 0.058824 0.952941
1.000000 0.070588 0.945098
1.000000 0.094118 0.870588
1.000000 0.094118 0.870588
0.200000 0.270588 0.847059
0.200000 0.270588 0.847059
0.501961 0.356863 0.890196
0.705882 0.364706 0.905882
0.858824 0.372549 0.917647
0.968627 0.372549 0.921569
1.000000 0.400000 0.878431
1.000000 0.400000 0.878431
0.211765 0.466667 0.847059
0.211765 0.466667 0.847059
0.478431 0.541176 0.890196
0.705882 0.592157 0.905882
0.850980 0.596078 0.913725
0.968627 0.600000 0.921569
1.000000 0.639216 0.886275
1.000000 0.639216 0.886275
0.227451 0.631373 0.847059
0.227451 0.631373 0.847059
0.501961 0.705882 0.898039
0.698039 0.725490 0.905882
0.858824 0.756863 0.917647
0.968627 0.756863 0.921569
1.000000 0.796078 0.901961
1.000000 0.796078 0.901961
0.243137 0.756863 0.847059
0.243137 0.756863 0.847059
0.513725 0.827451 0.898039
0.713725 0.847059 0.909804
0.850980 0.862745 0.917647
0.968627 0.878431 0.925490
1.000000 0.917647 0.937255
1.000000 0.917647 0.937255
0.254902 0.854902 0.847059
0.254902 0.854902 0.847059
0.529412 0.925490 0.898039
0.725490 0.949020 0.913725
0.862745 0.956863 0.917647
0.976471 0.972549 0.925490
1.000000 1.000000 1.000000
1.000000 1.000000 1.000000
0.254902 0.854902 0.847059
0.254902 0.854902 0.847059
0.529412 0.925490 0.898039
0.725490 0.949020 0.913725
0.862745 0.956863 0.917647
0.976471 0.972549 0.925490
1.000000 1.000000 1.000000
1.000000 1.000000 1.000000
0.223529 0.047059 0.870588
0.223529 0.047059 0.870588
0.541176 0.058824 0.921569
0.764706 0.058824 0.949020
0.905882 0.058824 0.952941
1.000000 0.070588 0.945098
1.000000 0.094118 0.870588
1.000000 0.094118 0.870588
0.223529 0.047059 0.870588
0.223529 0.047059 0.870588
0.541176 0.058824 0.921569
0.764706 0.058824 0.949020
0.905882 0.058824 0.952941
1.000000 0.070588 0.945098
1.000000 0.094118 0.870588
1.000000 0.094118 0.870588
0.200000 0.270588 0.847059
0.200000 0.270588 0.847059
0.501961 0.356863 0.890196
0.705882 0.364706 0.905882
0.858824 0.372549 0.917647
0.968627 0.372549 0.921569
1.000000 0.400000 0.878431
1.000000 0.400000 0.878431
0.211765 0.466667 0.847059
0.211765 0.466667 0.847059
0.478431 0.541176 0.890196
0.705882 0.592157 0.905882
0.850980 0.596078 0.913725
0.968627 0.600000 0.921569
1.000000 0.639216 0.886275
1.000000 0.639216 0.886275
0.227451 0.631373 0.847059
0.227451 0.631373 0.847059
0.501961 0.705882 0.898039
0.698039 0.725490 0.905882
0.858824 0.756863 0.917647
0.968627 0.756863 0.921569
1.000000 0.796078 0.901961
1.000000 0.796078 0.901961
0.243137 0.756863 0.847059
0.243137 0.756863 0.847059
0.513725 0.827451 0.898039
0.713725 0.847059 0.909804
0.850980 0.862745 0.917647
0.968627 0.878431 0.925490
1.000000 0.917647 0.937255
1.000000 0.917647 0.937255
0.254902 0.854902 0.847059
0.254902 0.854902 0.847059
0.529412 0.925490 0.898039
0.725490 0.949020 0.913725
0.862745 0.956863 0.917647
0.976471 0.972549 0.925490
1.000000 1.000000 1.000000
1.000000 1.000000 1.000000
0.254902 0.854902 0.847059
0.254902 0.854902 0.847059
0.529412 0.925490 0.898039
0.725490 0.949020 0.913725
0.862745 0.956863 0.917647
0.976471 0.972549 0.925490
1.000000 1.000000 1.000000
1.000000 1.000000 1.000000
