effects/025-innocean-capsule-pile/lut.CUBE
TITLE "lut - converted with Color.io - Created with Color.io"
LUT_3D_SIZE 64
DOMAIN_MIN 0.0 0.0 0.0
DOMAIN_MAX 1.0 1.0 1.0
0.090196 0.078431 0.074510
0.090196 0.078431 0.074510
0.090196 0.078431 0.074510
0.090196 0.078431 0.074510
0.090196 0.078431 0.074510
0.090196 0.078431 0.074510
0.090196 0.078431 0.074510
0.090196 0.078431 0.074510
0.090196 0.078431 0.074510
0.090196 0.078431 0.074510
0.090196 0.078431 0.074510
0.090196 0.078431 0.074510
0.129412 0.066667 0.062745
0.200000 0.058824 0.054902
0.286275 0.047059 0.043137
0.360784 0.035294 0.039216
0.431373 0.027451 0.035294
0.478431 0.019608 0.027451
0.525490 0.019608 0.019608
0.556863 0.019608 0.019608
0.584314 0.019608 0.019608
0.611765 0.019608 0.019608
0.639216 0.019608 0.019608
0.662745 0.019608 0.019608
0.690196 0.019608 0.019608
0.713725 0.023529 0.023529
0.733333 0.023529 0.023529
0.752941 0.023529 0.023529
0.772549 0.023529 0.023529
0.788235 0.027451 0.027451
0.807843 0.027451 0.027451
0.819608 0.023529 0.023529
0.847059 0.027451 0.027451
0.854902 0.027451 0.027451
0.870588 0.027451 0.027451
0.882353 0.027451 0.027451
0.905882 0.027451 0.027451
0.913725 0.027451 0.027451
0.929412 0.027451 0.027451
0.941176 0.027451 0.027451
0.952941 0.027451 0.027451
0.972549 0.031373 0.031373
0.984314 0.027451 0.027451
0.992157 0.035294 0.035294
1.000000 0.039216 0.039216
1.000000 0.047059 0.054902
1.000000 0.054902 0.066667
1.000000 0.062745 0.078431
1.000000 0.062745 0.082353
1.000000 0.074510 0.101961
1.000000 0.082353 0.117647
1.000000 0.090196 0.113725
1.000000 0.094118 0.113725
1.000000 0.098039 0.117647
1.000000 0.105882 0.117647
1.000000 0.105882 0.117647
1.000000 0.105882 0.117647
1.000000 0.105882 0.117647
1.000000 0.105882 0.117647
1.000000 0.105882 0.117647
1.000000 0.105882 0.117647
1.000000 0.105882 0.117647
1.000000 0.105882 0.117647
1.000000 0.105882 0.117647
0.090196 0.078431 0.074510
0.090196 0.078431 0.074510
0.090196 0.078431 0.074510
0.090196 0.078431 0.074510
0.090196 0.078431 0.074510
0.090196 0.078431 0.074510
0.090196 0.078431 0.074510
0.090196 0.078431 0.074510
0.090196 0.078431 0.074510
0.090196 0.078431 0.074510
0.090196 0.078431 0.074510
0.090196 0.078431 0.074510
0.129412 0.066667 0.062745
0.200000 0.058824 0.054902
0.286275 0.047059 0.043137
0.360784 0.035294 0.039216
0.431373 0.027451 0.035294
0.478431 0.019608 0.027451
0.525490 0.019608 0.019608
0.556863 0.019608 0.019608
0.584314 0.019608 0.019608
0.611765 0.019608 0.019608
0.639216 0.019608 0.019608
0.662745 0.019608 0.019608
0.690196 0.019608 0.019608
0.713725 0.023529 0.023529
0.733333 0.023529 0.023529
0.752941 0.023529 0.023529
0.772549 0.023529 0.023529
0.788235 0.027451 0.027451
0.807843 0.027451 0.027451
0.819608 0.023529 0.023529
0.847059 0.027451 0.027451
0.854902 0.027451 0.027451
0.870588 0.027451 0.027451
0.882353 0.027451 0.027451
0.905882 0.027451 0.027451
0.913725 0.027451 0.027451
0.929412 0.027451 0.027451
0.941176 0.027451 0.027451
0.952941 0.027451 0.027451
0.972549 0.031373 0.031373
0.984314 0.027451 0.027451
0.992157 0.035294 0.035294
1.000000 0.039216 0.039216
1.000000 0.047059 0.054902
1.000000 0.054902 0.066667
1.000000 0.062745 0.078431
1.000000 0.062745 0.082353
1.000000 0.074510 0.101961
1.000000 0.082353 0.117647
1.000000 0.090196 0.113725
1.000000 0.094118 0.113725
1.000000 0.098039 0.117647
1.000000 0.105882 0.117647
1.000000 0.105882 0.117647
1.000000 0.105882 0.117647
1.000000 0.105882 0.117647
1.000000 0.105882 0.117647
1.000000 0.105882 0.117647
1.000000 0.105882 0.117647
1.000000 0.105882 0.117647
1.000000 0.105882 0.117647
1.000000 0.105882 0.117647
0.090196 0.078431 0.074510
0.090196 0.078431 0.074510
0.090196 0.078431 0.074510
0.090196 0.078431 0.074510
0.090196 0.078431 0.074510
0.090196 0.078431 0.074510
0.090196 0.078431 0.074510
0.090196 0.078431 0.074510
0.090196 0.078431 0.074510
0.090196 0.078431 0.074510
0.090196 0.078431 0.074510
0.090196 0.078431 0.074510
0.129412 0.066667 0.062745
0.200000 0.058824 0.054902
0.286275 0.047059 0.043137
0.360784 0.035294 0.039216
0.431373 0.027451 0.035294
0.478431 0.019608 0.027451
0.525490 0.019608 0.019608
0.556863 0.019608 0.019608
0.584314 0.019608 0.019608
0.611765 0.019608 0.019608
0.639216 0.019608 0.019608
0.662745 0.019608 0.019608
0.690196 0.019608 0.019608
0.713725 0.023529 0.023529
0.733333 0.023529 0.023529
0.752941 0.023529 0.023529
0.772549 0.023529 0.023529
0.788235 0.027451 0.027451
0.807843 0.027451 0.027451
0.819608 0.023529 0.023529
0.847059 0.027451 0.027451
0.854902 0.027451 0.027451
0.870588 0.027451 0.027451
0.882353 0.027451 0.027451
0.905882 0.027451 0.027451
0.913725 0.027451 0.027451
0.929412 0.027451 0.027451
0.941176 0.027451 0.027451
0.952941 0.027451 0.027451
0.972549 0.031373 0.031373
0.984314 0.027451 0.027451
0.992157 0.035294 0.035294
1.000000 0.039216 0.039216
1.000000 0.047059 0.054902
1.000000 0.054902 0.066667
1.000000 0.062745 0.078431
1.000000 0.062745 0.082353
1.000000 0.074510 0.101961
1.000000 0.082353 0.117647
1.000000 0.090196 0.113725
1.000000 0.094118 0.113725
1.000000 0.098039 0.117647
1.000000 0.105882 0.117647
1.000000 0.105882 0.117647
1.000000 0.105882 0.117647
1.000000 0.105882 0.117647
1.000000 0.105882 0.117647
1.000000 0.105882 0.117647
1.000000 0.105882 0.117647
1.000000 0.105882 0.117647
1.000000 0.105882 0.117647
1.000000 0.105882 0.117647
0.090196 0.078431 0.074510
0.090196 0.078431 0.074510
0.090196 0.078431 0.074510
0.090196 0.078431 0.074510
0.090196 0.078431 0.074510
0.090196 0.078431 0.074510
0.090196 0.078431 0.074510
0.090196 0.078431 0.074510
0.090196 0.078431 0.074510
0.090196 0.078431 0.074510
0.090196 0.078431 0.074510
0.090196 0.078431 0.074510
0.129412 0.066667 0.062745
0.200000 0.058824 0.054902
0.286275 0.047059 0.043137
0.360784 0.035294 0.039216
0.431373 0.027451 0.035294
0.478431 0.019608 0.027451
0.525490 0.019608 0.019608
0.556863 0.019608 0.019608
0.584314 0.019608 0.019608
0.611765 0.019608 0.019608
0.639216 0.019608 0.019608
0.662745 0.019608 0.019608
0.690196 0.019608 0.019608
0.713725 0.023529 0.023529
0.733333 0.023529 0.023529
0.752941 0.023529 0.023529
0.772549 0.023529 0.023529
0.788235 0.027451 0.027451
0.807843 0.027451 0.027451
0.819608 0.023529 0.023529
0.847059 0.027451 0.027451
0.854902 0.027451 0.027451
0.870588 0.027451 0.027451
0.882353 0.027451 0.027451
0.905882 0.027451 0.027451
0.913725 0.027451 0.027451
0.929412 0.027451 0.027451
0.941176 0.027451 0.027451
0.952941 0.027451 0.027451
0.972549 0.031373 0.031373
0.984314 0.027451 0.027451
0.992157 0.035294 0.035294
1.000000 0.039216 0.039216
1.000000 0.047059 0.054902
1.000000 0.054902 0.066667
1.000000 0.062745 0.078431
1.000000 0.062745 0.082353
1.000000 0.074510 0.101961
1.000000 0.082353 0.117647
1.000000 0.090196 0.113725
1.000000 0.094118 0.113725
1.000000 0.098039 0.117647
1.000000 0.105882 0.117647
1.000000 0.105882 0.117647
1.000000 0.105882 0.117647
1.000000 0.105882 0.117647
1.000000 0.105882 0.117647
1.000000 0.105882 0.117647
1.000000 0.105882 0.117647
1.000000 0.105882 0.117647
1.000000 0.105882 0.117647
1.000000 0.105882 0.117647
0.090196 0.078431 0.074510
0.090196 0.078431 0.074510
0.090196 0.078431 0.074510
0.090196 0.078431 0.074510
0.090196 0.078431 0.074510
0.090196 0.078431 0.074510
0.090196 0.078431 0.074510
0.090196 0.078431 0.074510
0.090196 0.078431 0.074510
0.090196 0.078431 0.074510
0.090196 0.078431 0.074510
0.090196 0.078431 0.074510
0.129412 0.066667 0.062745
0.200000 0.058824 0.054902
0.286275 0.047059 0.043137
0.360784 0.035294 0.039216
0.431373 0.027451 0.035294
0.478431 0.019608 0.027451
0.525490 0.019608 0.019608
0.556863 0.019608 0.019608
0.584314 0.019608 0.019608
0.611765 0.019608 0.019608
0.639216 0.019608 0.019608
0.662745 0.019608 0.019608
0.690196 0.019608 0.019608
0.713725 0.023529 0.023529
0.733333 0.023529 0.023529
0.752941 0.023529 0.023529
0.772549 0.023529 0.023529
0.788235 0.027451 0.027451
0.807843 0.027451 0.027451
0.819608 0.023529 0.023529
0.847059 0.027451 0.027451
0.854902 0.027451 0.027451
0.870588 0.027451 0.027451
0.882353 0.027451 0.027451
0.905882 0.027451 0.027451
0.913725 0.027451 0.027451
0.929412 0.027451 0.027451
0.941176 0.027451 0.027451
0.952941 0.027451 0.027451
0.972549 0.031373 0.031373
0.984314 0.027451 0.027451
0.992157 0.035294 0.035294
1.000000 0.039216 0.039216
1.000000 0.047059 0.054902
1.000000 0.054902 0.066667
1.000000 0.062745 0.078431
1.000000 0.062745 0.082353
1.000000 0.074510 0.101961
1.000000 0.082353 0.117647
1.000000 0.090196 0.113725
1.000000 0.094118 0.113725
1.000000 0.098039 0.117647
1.000000 0.105882 0.117647
1.000000 0.105882 0.117647
1.000000 0.105882 0.117647
1.000000 0.105882 0.117647
1.000000 0.105882 0.117647
1.000000 0.105882 0.117647
1.000000 0.105882 0.117647
1.000000 0.105882 0.117647
1.000000 0.105882 0.117647
1.000000 0.105882 0.117647
0.090196 0.078431 0.074510
0.090196 0.078431 0.074510
0.090196 0.078431 0.074510
0.090196 0.078431 0.074510
0.090196 0.078431 0.074510
0.090196 0.078431 0.074510
0.090196 0.078431 0.074510
0.090196 0.078431 0.074510
0.090196 0.078431 0.074510
0.090196 0.078431 0.074510
0.090196 0.078431 0.074510
0.090196 0.078431 0.074510
0.129412 0.066667 0.062745
0.200000 0.058824 0.054902
0.286275 0.047059 0.043137
0.360784 0.035294 0.039216
0.431373 0.027451 0.035294
0.478431 0.019608 0.027451
0.525490 0.019608 0.019608
0.556863 0.019608 0.019608
0.584314 0.019608 0.019608
0.611765 0.019608 0.019608
0.639216 0.019608 0.019608
0.662745 0.019608 0.019608
0.690196 0.019608 0.019608
0.713725 0.023529 0.023529
0.733333 0.023529 0.023529
0.752941 0.023529 0.023529
0.772549 0.023529 0.023529
0.788235 0.027451 0.027451
0.807843 0.027451 0.027451
0.819608 0.023529 0.023529
0.847059 0.027451 0.027451
0.854902 0.027451 0.027451
0.870588 0.027451 0.027451
0.882353 0.027451 0.027451
0.905882 0.027451 0.027451
0.913725 0.027451 0.027451
0.929412 0.027451 0.027451
0.941176 0.027451 0.027451
0.952941 0.027451 0.027451
0.972549 0.031373 0.031373
0.984314 0.027451 0.027451
0.992157 0.035294 0.035294
1.000000 0.039216 0.039216
1.000000 0.047059 0.054902
1.000000 0.054902 0.066667
1.000000 0.062745 0.078431
1.000000 0.062745 0.082353
1.000000 0.074510 0.101961
1.000000 0.082353 0.117647
1.000000 0.090196 0.113725
1.000000 0.094118 0.113725
1.000000 0.098039 0.117647
1.000000 0.105882 0.117647
1.000000 0.105882 0.117647
1.000000 0.105882 0.117647
1.000000 0.105882 0.117647
1.000000 0.105882 0.117647
1.000000 0.105882 0.117647
1.000000 0.105882 0.117647
1.000000 0.105882 0.117647
1.000000 0.105882 0.117647
1.000000 0.105882 0.117647
0.090196 0.078431 0.074510
0.090196 0.078431 0.074510
0.090196 0.078431 0.074510
0.090196 0.078431 0.074510
0.090196 0.078431 0.074510
0.090196 0.078431 0.074510
0.090196 0.078431 0.074510
0.090196 0.078431 0.074510
0.090196 0.078431 0.074510
0.090196 0.078431 0.074510
0.090196 0.078431 0.074510
0.090196 0.078431 0.074510
0.129412 0.066667 0.062745
0.200000 0.058824 0.054902
0.286275 0.047059 0.043137
0.360784 0.035294 0.039216
0.431373 0.027451 0.035294
0.478431 0.019608 0.027451
0.525490 0.019608 0.019608
0.556863 0.019608 0.019608
0.584314 0.019608 0.019608
0.611765 0.019608 0.019608
0.639216 0.019608 0.019608
0.662745 0.019608 0.019608
0.690196 0.019608 0.019608
0.713725 0.023529 0.023529
0.733333 0.023529 0.023529
0.752941 0.023529 0.023529
0.772549 0.023529 0.023529
0.788235 0.027451 0.027451
0.807843 0.027451 0.027451
0.819608 0.023529 0.023529
0.847059 0.027451 0.027451
0.854902 0.027451 0.027451
0.870588 0.027451 0.027451
0.882353 0.027451 0.027451
0.905882 0.027451 0.027451
0.913725 0.027451 0.027451
0.929412 0.027451 0.027451
0.941176 0.027451 0.027451
0.952941 0.027451 0.027451
0.972549 0.031373 0.031373
0.984314 0.027451 0.027451
0.992157 0.035294 0.035294
1.000000 0.039216 0.039216
1.000000 0.047059 0.054902
1.000000 0.054902 0.066667
1.000000 0.062745 0.078431
1.000000 0.062745 0.082353
1.000000 0.074510 0.101961
1.000000 0.082353 0.117647
1.000000 0.090196 0.113725
1.000000 0.094118 0.113725
1.000000 0.098039 0.117647
1.000000 0.105882 0.117647
1.000000 0.105882 0.117647
1.000000 0.105882 0.117647
1.000000 0.105882 0.117647
1.000000 0.105882 0.117647
1.000000 0.105882 0.117647
1.000000 0.105882 0.117647
1.000000 0.105882 0.117647
1.000000 0.105882 0.117647
1.000000 0.105882 0.117647
0.090196 0.078431 0.074510
0.090196 0.078431 0.074510
0.090196 0.078431 0.074510
0.090196 0.078431 0.074510
0.090196 0.078431 0.074510
0.090196 0.078431 0.074510
0.090196 0.078431 0.074510
0.090196 0.078431 0.074510
0.090196 0.078431 0.074510
0.090196 0.078431 0.074510
0.090196 0.078431 0.074510
0.090196 0.078431 0.074510
0.129412 0.066667 0.062745
0.200000 0.058824 0.054902
0.286275 0.047059 0.043137
0.360784 0.035294 0.039216
0.431373 0.027451 0.035294
0.478431 0.019608 0.027451
0.525490 0.019608 0.019608
0.556863 0.019608 0.019608
0.584314 0.019608 0.019608
0.611765 0.019608 0.019608
0.639216 0.019608 0.019608
0.662745 0.019608 0.019608
0.690196 0.019608 0.019608
0.713725 0.023529 0.023529
0.733333 0.023529 0.023529
0.752941 0.023529 0.023529
0.772549 0.023529 0.023529
0.788235 0.027451 0.027451
0.807843 0.027451 0.027451
0.819608 0.023529 0.023529
0.847059 0.027451 0.027451
0.854902 0.027451 0.027451
0.870588 0.027451 0.027451
0.882353 0.027451 0.027451
0.905882 0.027451 0.027451
0.913725 0.027451 0.027451
0.929412 0.027451 0.027451
0.941176 0.027451 0.027451
0.952941 0.027451 0.027451
0.972549 0.031373 0.031373
0.984314 0.027451 0.027451
0.992157 0.035294 0.035294
1.000000 0.039216 0.039216
1.000000 0.047059 0.054902
1.000000 0.054902 0.066667
1.000000 0.062745 0.078431
1.000000 0.062745 0.082353
1.000000 0.074510 0.101961
1.000000 0.082353 0.117647
1.000000 0.090196 0.113725
1.000000 0.094118 0.113725
1.000000 0.098039 0.117647
1.000000 0.105882 0.117647
1.000000 0.105882 0.117647
1.000000 0.105882 0.117647
1.000000 0.105882 0.117647
1.000000 0.105882 0.117647
1.000000 0.105882 0.117647
1.000000 0.105882 0.117647
1.000000 0.105882 0.117647
1.000000 0.105882 0.117647
1.000000 0.105882 0.117647
0.090196 0.078431 0.074510
0.090196 0.078431 0.074510
0.090196 0.078431 0.074510
0.090196 0.078431 0.074510
0.090196 0.078431 0.074510
0.090196 0.078431 0.074510
0.090196 0.078431 0.074510
0.090196 0.078431 0.074510
0.090196 0.078431 0.074510
0.090196 0.078431 0.074510
0.090196 0.078431 0.074510
0.090196 0.078431 0.074510
0.129412 0.066667 0.062745
0.200000 0.058824 0.054902
0.286275 0.047059 0.043137
0.360784 0.035294 0.039216
0.431373 0.027451 0.035294
0.478431 0.019608 0.027451
0.525490 0.019608 0.019608
0.556863 0.019608 0.019608
0.584314 0.019608 0.019608
0.611765 0.019608 0.019608
0.639216 0.019608 0.019608
0.662745 0.019608 0.019608
0.690196 0.019608 0.019608
0.713725 0.023529 0.023529
0.733333 0.023529 0.023529
0.752941 0.023529 0.023529
0.772549 0.023529 0.023529
0.788235 0.027451 0.027451
0.807843 0.027451 0.027451
0.819608 0.023529 0.023529
0.847059 0.027451 0.027451
0.854902 0.027451 0.027451
0.870588 0.027451 0.027451
0.882353 0.027451 0.027451
0.905882 0.027451 0.027451
0.913725 0.027451 0.027451
0.929412 0.027451 0.027451
0.941176 0.027451 0.027451
0.952941 0.027451 0.027451
0.972549 0.031373 0.031373
0.984314 0.027451 0.027451
0.992157 0.035294 0.035294
1.000000 0.039216 0.039216
1.000000 0.047059 0.054902
1.000000 0.054902 0.066667
1.000000 0.062745 0.078431
1.000000 0.062745 0.082353
1.000000 0.074510 0.101961
1.000000 0.082353 0.117647
1.000000 0.090196 0.113725
1.000000 0.094118 0.113725
1.000000 0.098039 0.117647
1.000000 0.105882 0.117647
1.000000 0.105882 0.117647
1.000000 0.105882 0.117647
1.000000 0.105882 0.117647
1.000000 0.105882 0.117647
1.000000 0.105882 0.117647
1.000000 0.105882 0.117647
1.000000 0.105882 0.117647
1.000000 0.105882 0.117647
1.000000 0.105882 0.117647
0.090196 0.078431 0.074510
0.090196 0.078431 0.074510
0.090196 0.078431 0.074510
0.090196 0.078431 0.074510
0.090196 0.078431 0.074510
0.090196 0.078431 0.074510
0.090196 0.078431 0.074510
0.090196 0.078431 0.074510
0.090196 0.078431 0.074510
0.090196 0.078431 0.074510
0.090196 0.078431 0.074510
0.090196 0.078431 0.074510
0.129412 0.066667 0.062745
0.200000 0.058824 0.054902
0.286275 0.047059 0.043137
0.360784 0.035294 0.039216
0.431373 0.027451 0.035294
0.478431 0.019608 0.027451
0.525490 0.019608 0.019608
0.556863 0.019608 0.019608
0.584314 0.019608 0.019608
0.611765 0.019608 0.019608
0.639216 0.019608 0.019608
0.662745 0.019608 0.019608
0.690196 0.019608 0.019608
0.713725 0.023529 0.023529
0.733333 0.023529 0.023529
0.752941 0.023529 0.023529
0.772549 0.023529 0.023529
0.788235 0.027451 0.027451
0.807843 0.027451 0.027451
0.819608 0.023529 0.023529
0.847059 0.027451 0.027451
0.854902 0.027451 0.027451
0.870588 0.027451 0.027451
0.882353 0.027451 0.027451
0.905882 0.027451 0.027451
0.913725 0.027451 0.027451
0.929412 0.027451 0.027451
0.941176 0.027451 0.027451
0.952941 0.027451 0.027451
0.972549 0.031373 0.031373
0.984314 0.027451 0.027451
0.992157 0.035294 0.035294
1.000000 0.039216 0.039216
1.000000 0.047059 0.054902
1.000000 0.054902 0.066667
1.000000 0.062745 0.078431
1.000000 0.062745 0.082353
1.000000 0.074510 0.101961
1.000000 0.082353 0.117647
1.000000 0.090196 0.113725
1.000000 0.094118 0.113725
1.000000 0.098039 0.117647
1.000000 0.105882 0.117647
1.000000 0.105882 0.117647
1.000000 0.105882 0.117647
1.000000 0.105882 0.117647
1.000000 0.105882 0.117647
1.000000 0.105882 0.117647
1.000000 0.105882 0.117647
1.000000 0.105882 0.117647
1.000000 0.105882 0.117647
1.000000 0.105882 0.117647
0.090196 0.078431 0.074510
0.090196 0.078431 0.074510
0.090196 0.078431 0.074510
0.090196 0.078431 0.074510
0.090196 0.078431 0.074510
0.090196 0.078431 0.074510
0.090196 0.078431 0.074510
0.090196 0.078431 0.074510
0.090196 0.078431 0.074510
0.090196 0.078431 0.074510
0.090196 0.078431 0.074510
0.090196 0.078431 0.074510
0.129412 0.066667 0.062745
0.200000 0.058824 0.054902
0.286275 0.047059 0.043137
0.360784 0.035294 0.039216
0.431373 0.027451 0.035294
0.478431 0.019608 0.027451
0.525490 0.019608 0.019608
0.556863 0.019608 0.019608
0.584314 0.019608 0.019608
0.611765 0.019608 0.019608
0.639216 0.019608 0.019608
0.662745 0.019608 0.019608
0.690196 0.019608 0.019608
0.713725 0.023529 0.023529
0.733333 0.023529 0.023529
0.752941 0.023529 0.023529
0.772549 0.023529 0.023529
0.788235 0.027451 0.027451
0.807843 0.027451 0.027451
0.819608 0.023529 0.023529
0.847059 0.027451 0.027451
0.854902 0.027451 0.027451
0.870588 0.027451 0.027451
0.882353 0.027451 0.027451
0.905882 0.027451 0.027451
0.913725 0.027451 0.027451
0.929412 0.027451 0.027451
0.941176 0.027451 0.027451
0.952941 0.027451 0.027451
0.972549 0.031373 0.031373
0.984314 0.027451 0.027451
0.992157 0.035294 0.035294
1.000000 0.039216 0.039216
1.000000 0.047059 0.054902
1.000000 0.054902 0.066667
1.000000 0.062745 0.078431
1.000000 0.062745 0.082353
1.000000 0.074510 0.101961
1.000000 0.082353 0.117647
1.000000 0.090196 0.113725
1.000000 0.094118 0.113725
1.000000 0.098039 0.117647
1.000000 0.105882 0.117647
1.000000 0.105882 0.117647
1.000000 0.105882 0.117647
1.000000 0.105882 0.117647
1.000000 0.105882 0.117647
1.000000 0.105882 0.117647
1.000000 0.105882 0.117647
1.000000 0.105882 0.117647
1.000000 0.105882 0.117647
1.000000 0.105882 0.117647
0.090196 0.078431 0.074510
0.090196 0.078431 0.074510
0.090196 0.078431 0.074510
0.090196 0.078431 0.074510
0.090196 0.078431 0.074510
0.090196 0.078431 0.074510
0.090196 0.078431 0.074510
0.090196 0.078431 0.074510
0.090196 0.078431 0.074510
0.090196 0.078431 0.074510
0.090196 0.078431 0.074510
0.090196 0.078431 0.074510
0.129412 0.066667 0.062745
0.200000 0.058824 0.054902
0.286275 0.047059 0.043137
0.360784 0.035294 0.039216
0.431373 0.027451 0.035294
0.478431 0.019608 0.027451
0.525490 0.019608 0.019608
0.556863 0.019608 0.019608
0.584314 0.019608 0.019608
0.611765 0.019608 0.019608
0.639216 0.019608 0.019608
0.662745 0.019608 0.019608
0.690196 0.019608 0.019608
0.713725 0.023529 0.023529
0.733333 0.023529 0.023529
0.752941 0.023529 0.023529
0.772549 0.023529 0.023529
0.788235 0.027451 0.027451
0.807843 0.027451 0.027451
0.819608 0.023529 0.023529
0.847059 0.027451 0.027451
0.854902 0.027451 0.027451
0.870588 0.027451 0.027451
0.882353 0.027451 0.027451
0.905882 0.027451 0.027451
0.913725 0.027451 0.027451
0.929412 0.027451 0.027451
0.941176 0.027451 0.027451
0.952941 0.027451 0.027451
0.972549 0.031373 0.031373
0.984314 0.027451 0.027451
0.992157 0.035294 0.035294
1.000000 0.039216 0.039216
1.000000 0.047059 0.054902
1.000000 0.054902 0.066667
1.000000 0.062745 0.078431
1.000000 0.062745 0.082353
1.000000 0.074510 0.101961
1.000000 0.082353 0.117647
1.000000 0.090196 0.113725
1.000000 0.094118 0.113725
1.000000 0.098039 0.117647
1.000000 0.105882 0.117647
1.000000 0.105882 0.117647
1.000000 0.105882 0.117647
1.000000 0.105882 0.117647
1.000000 0.105882 0.117647
1.000000 0.105882 0.117647
1.000000 0.105882 0.117647
1.000000 0.105882 0.117647
1.000000 0.105882 0.117647
1.000000 0.105882 0.117647
0.078431 0.121569 0.062745
0.078431 0.121569 0.062745
0.078431 0.121569 0.062745
0.078431 0.121569 0.062745
0.078431 0.121569 0.062745
0.078431 0.121569 0.062745
0.078431 0.121569 0.062745
0.078431 0.121569 0.062745
0.078431 0.121569 0.062745
0.078431 0.121569 0.062745
0.078431 0.121569 0.062745
0.078431 0.121569 0.062745
0.133333 0.121569 0.066667
0.203922 0.117647 0.054902
0.290196 0.105882 0.043137
0.356863 0.094118 0.035294
0.419608 0.082353 0.027451
0.478431 0.078431 0.023529
0.525490 0.074510 0.019608
0.572549 0.066667 0.023529
0.600000 0.066667 0.027451
0.631373 0.066667 0.027451
0.658824 0.066667 0.027451
0.682353 0.066667 0.031373
0.705882 0.062745 0.031373
0.733333 0.066667 0.035294
0.756863 0.058824 0.035294
0.784314 0.062745 0.039216
0.800000 0.054902 0.039216
0.827451 0.058824 0.047059
0.839216 0.058824 0.047059
0.858824 0.054902 0.047059
0.882353 0.050980 0.047059
0.901961 0.054902 0.050980
0.917647 0.054902 0.054902
0.929412 0.054902 0.054902
0.945098 0.054902 0.054902
0.956863 0.054902 0.054902
0.972549 0.054902 0.054902
0.988235 0.054902 0.054902
0.996078 0.054902 0.054902
1.000000 0.058824 0.058824
1.000000 0.066667 0.066667
1.000000 0.066667 0.066667
1.000000 0.078431 0.074510
1.000000 0.086275 0.074510
1.000000 0.094118 0.074510
1.000000 0.098039 0.074510
1.000000 0.105882 0.074510
1.000000 0.113725 0.074510
1.000000 0.121569 0.082353
1.000000 0.125490 0.090196
1.000000 0.137255 0.098039
1.000000 0.137255 0.101961
1.000000 0.145098 0.105882
1.000000 0.145098 0.105882
1.000000 0.145098 0.105882
1.000000 0.145098 0.105882
1.000000 0.145098 0.105882
1.000000 0.145098 0.105882
1.000000 0.145098 0.105882
1.000000 0.145098 0.105882
1.000000 0.145098 0.105882
1.000000 0.145098 0.105882
0.074510 0.192157 0.054902
0.074510 0.192157 0.054902
0.074510 0.192157 0.054902
0.074510 0.192157 0.054902
0.074510 0.192157 0.054902
0.074510 0.192157 0.054902
0.074510 0.192157 0.054902
0.074510 0.192157 0.054902
0.074510 0.192157 0.054902
0.074510 0.192157 0.054902
0.074510 0.192157 0.054902
0.074510 0.192157 0.054902
0.117647 0.196078 0.050980
0.200000 0.196078 0.050980
0.294118 0.192157 0.039216
0.360784 0.180392 0.027451
0.431373 0.172549 0.027451
0.474510 0.164706 0.019608
0.525490 0.160784 0.019608
0.564706 0.156863 0.019608
0.592157 0.152941 0.019608
0.619608 0.149020 0.023529
0.650980 0.145098 0.023529
0.674510 0.149020 0.027451
0.694118 0.141176 0.023529
0.717647 0.145098 0.027451
0.741176 0.141176 0.027451
0.760784 0.141176 0.027451
0.776471 0.137255 0.027451
0.796078 0.137255 0.027451
0.811765 0.133333 0.027451
0.831373 0.137255 0.031373
0.854902 0.133333 0.031373
0.866667 0.133333 0.031373
0.882353 0.133333 0.035294
0.898039 0.133333 0.035294
0.917647 0.133333 0.035294
0.929412 0.133333 0.035294
0.945098 0.133333 0.035294
0.952941 0.133333 0.035294
0.972549 0.129412 0.039216
0.984314 0.133333 0.039216
1.000000 0.133333 0.039216
1.000000 0.133333 0.039216
1.000000 0.145098 0.039216
1.000000 0.149020 0.039216
1.000000 0.156863 0.054902
1.000000 0.168627 0.058824
1.000000 0.160784 0.054902
1.000000 0.172549 0.062745
1.000000 0.176471 0.070588
1.000000 0.184314 0.078431
