effects/025-innocean-capsule-pile/lut.CUBE
TITLE "lut - converted with Color.io - Created with Color.io"
LUT_3D_SIZE 4
DOMAIN_MIN 0.0 0.0 0.0
DOMAIN_MAX 1.0 1.0 1.0
0.090196 0.078431 0.074510
0.611765 0.019608 0.019608
0.984314 0.027451 0.027451
1.000000 0.105882 0.117647
0.090196 0.533333 0.003922
0.611765 0.603922 0.031373
1.000000 0.521569 0.035294
1.000000 0.509804 0.094118
0.149020 0.890196 0.003922
0.494118 0.952941 0.031373
0.976471 0.972549 0.043137
1.000000 0.886275 0.156863
0.200000 0.929412 0.047059
0.505882 0.972549 0.039216
0.866667 0.984314 0.047059
0.996078 0.984314 0.050980
0.074510 0.003922 0.317647
0.615686 0.011765 0.490196
0.964706 0.015686 0.352941
1.000000 0.082353 0.427451
0.125490 0.486275 0.478431
0.505882 0.447059 0.415686
0.996078 0.352941 0.313725
1.000000 0.501961 0.450980
0.168627 0.882353 0.388235
0.427451 0.945098 0.313725
1.000000 0.968627 0.313725
1.000000 0.874510 0.541176
0.219608 0.921569 0.411765
0.560784 0.964706 0.439216
0.890196 0.976471 0.431373
1.000000 0.972549 0.576471
0.121569 0.003922 0.572549
0.564706 0.007843 0.866667
0.984314 0.015686 0.827451
1.000000 0.090196 0.756863
0.156863 0.313725 0.815686
0.439216 0.301961 0.874510
1.000000 0.337255 0.870588
1.000000 0.474510 0.764706
0.203922 0.811765 0.811765
0.474510 0.905882 0.882353
0.921569 0.847059 0.800000
1.000000 0.878431 0.847059
0.254902 0.909804 0.760784
0.592157 0.964706 0.807843
0.933333 0.980392 0.811765
1.000000 0.984314 0.941176
0.223529 0.047059 0.870588
0.619608 0.058824 0.933333
0.980392 0.062745 0.956863
1.000000 0.094118 0.870588
0.203922 0.337255 0.850980
0.576471 0.439216 0.901961
0.929412 0.450980 0.917647
1.000000 0.490196 0.878431
0.239216 0.721569 0.850980
0.584314 0.800000 0.905882
0.933333 0.839216 0.921569
1.000000 0.878431 0.921569
0.254902 0.854902 0.847059
0.596078 0.933333 0.901961
0.937255 0.968627 0.921569
1.000000 1.000000 1.000000
